X:734
T: The Hungry Rock
Z: Piano Box Version by Martin Fleischmann
H: Created 2015-05-17 /  Last Modified 2015-05-17
R: jig
M: 6/8
L: 1/8
K: Edor
|:z EB GEB|EFF dAf|z EB GEB|EFD EED|
z EB GEB|EFF dAf|z gf edB|ABd EED :|
|:z AF AB/c/d|efe dAB|z AF AB/c/d|efg fed|
z AF AB/c/d|efe dAB|z gf edB|AB/c/d edf :|
|:z EF GFE|EFF GFE|z EF GFE|BGE cEd|
z EF GFE|EFF GFE|z BG EcA|dAg gfe :|

